svgs/thin/beer-mug-empty.svg

<svg xmlns="http://www.w3.org/2000/svg" viewBox="0 0 512 512"><!-- Font Awesome Pro 6.0.0-alpha2 by @fontawesome - https://fontawesome.com License - https://fontawesome.com/license (Commercial License) --><path d="M144 128C139.578 128 136 131.578 136 136V376C136 380.422 139.578 384 144 384S152 380.422 152 376V136C152 131.578 148.422 128 144 128ZM208 128C203.578 128 200 131.578 200 136V376C200 380.422 203.578 384 208 384S216 380.422 216 376V136C216 131.578 212.422 128 208 128ZM272 128C267.578 128 264 131.578 264 136V376C264 380.422 267.578 384 272 384S280 380.422 280 376V136C280 131.578 276.422 128 272 128ZM440 96H384V64C384 46.326 369.674 32 352 32H64C46.328 32 32 46.326 32 64V416C32 451.346 60.654 480 96 480H320C355.348 480 384 451.346 384 416V372.945L440.203 344.844C464.75 332.562 480 307.891 480 280.453V136C480 113.938 462.062 96 440 96ZM368 416C368 442.467 346.467 464 320 464H96C69.533 464 48 442.467 48 416V64C48 55.178 55.178 48 64 48H352C360.822 48 368 55.178 368 64V416ZM464 280.453C464 301.797 452.141 320.984 433.047 330.531L384 355.055V112H440C453.234 112 464 122.766 464 136V280.453Z"/></svg>

<svg xmlns="http://www.w3.org/2000/svg" viewBox="0 0 512 512"><!--! Font Awesome Pro 6.3.0 by @fontawesome - https://fontawesome.com License - https://fontawesome.com/license (Commercial License) Copyright 2023 Fonticons, Inc. --><path d="M144 128C139.6 128 136 131.6 136 136v240C136 380.4 139.6 384 144 384s8-3.578 8-8v-240C152 131.6 148.4 128 144 128zM208 128C203.6 128 200 131.6 200 136v240C200 380.4 203.6 384 208 384s8-3.578 8-8v-240C216 131.6 212.4 128 208 128zM272 128c-4.422 0-8 3.578-8 8v240c0 4.422 3.578 8 8 8s8-3.578 8-8v-240C280 131.6 276.4 128 272 128zM440 96H384V64c0-17.67-14.33-32-32-32H64C46.33 32 32 46.33 32 64v352c0 35.35 28.65 64 64 64h224c35.35 0 64-28.65 64-64v-43.05l56.2-28.1C464.8 332.6 480 307.9 480 280.5V136C480 113.9 462.1 96 440 96zM368 416c0 26.47-21.53 48-48 48H96c-26.47 0-48-21.53-48-48V64c0-8.822 7.178-16 16-16h288c8.822 0 16 7.178 16 16V416zM464 280.5c0 21.34-11.86 40.53-30.95 50.08L384 355.1V112h56c13.23 0 24 10.77 24 24V280.5z"/></svg>
